X: 19
T: Croppies lie down
%R: jig
B: "Twenty Four Country Dances for the Year 1799", Thomas Skillern, ed. p.10 #1
F: http://www.vwml.org/browse/browse-collections-dance-tune-books/browse-skillerns1799
Z: 2014 John Chambers <jc:trillian.mit.edu>
M: 6/8
L: 1/8
K: G
g |\
dBG GFG | ABA ABd | ef/g/e dBd | gGG Gge |\
dBG GFG | ABA ABd | ef/g/e dBd | gGG G2 ||
|: e |\
def gfg | efg a2f | gab efg | dBG AGF |\
G>AG BGG | cGG dGG | ecd efg | dBG G2 :|
%%begintext align
%% Right hands across half round, left hands
%% back again, down the middle up again and Cast
%% off, Hands 6 round.
%%endtext

%%sep 1 1 500
%%sep 1 1 500
